X: 8611
T: Cronin's Rambles
R: hornpipe
M: 4/4
K: Gmajor
|:D2|GFGA BGBd|cBce d2Bd|gdcB cedc|BGAF DEFD|
GFGA BGBd|cBce d2Bd|gdBd cAFA|G2GF G2:|
|:D2|GABd gdBd|edgd c2Bd|gdcB cedc|BGAF DEFD|
GABd gdBd|edgd c2Bd|gdBd cAFA|G2GF G2:|

